app/images/src/icons/telegram.svg

<svg width="25" height="25" viewBox="0 0 25 25" fill="none" xmlns="http://www.w3.org/2000/svg">
<g clip-path="url(#clip0_281_724)">
<path d="M24.5105 2.04831C24.3126 1.86726 24.0701 1.74214 23.8079 1.68581C23.5457 1.62947 23.2733 1.64395 23.0185 1.72775L1.03668 8.9739C0.437609 9.17136 0.0313588 9.70612 0.00172009 10.3362C-0.0278698 10.9662 0.326378 11.5368 0.90421 11.7897L6.34049 14.1682L7.98068 21.7754C8.04879 22.0914 8.20919 22.3729 8.54899 22.4594C8.89269 22.547 9.13551 22.3591 9.39195 22.1672L13.4261 19.1464L18.1424 23.0057C18.4171 23.2306 18.7528 23.3479 19.0952 23.3479C19.261 23.3478 19.4258 23.3204 19.5828 23.267C20.0792 23.0987 20.4471 22.6936 20.5671 22.1834L24.96 3.50651C25.0212 3.24543 25.0119 2.97275 24.9329 2.71648C24.8539 2.46022 24.7081 2.2296 24.5105 2.04831ZM9.74337 15.5311C9.74069 15.5375 9.73805 15.5446 9.73556 15.5532L8.82618 18.7304L7.81134 14.0236L14.7897 10.1464L9.91075 15.2479C9.83424 15.3284 9.77701 15.4253 9.74337 15.5311ZM10.032 19.8536L10.445 18.4105L10.8401 17.0302L12.2557 18.1886L10.032 19.8536ZM23.5307 3.17028L19.1379 21.8471C19.1357 21.8564 19.1327 21.8692 19.1112 21.8765C19.09 21.8837 19.0796 21.8755 19.0723 21.8694L13.9116 17.6464L13.9112 17.646L11.5201 15.6894L19.2019 7.65725C19.3233 7.5303 19.3952 7.36402 19.4044 7.18861C19.4137 7.0132 19.3598 6.84028 19.2525 6.70124C19.1451 6.56218 18.9915 6.46622 18.8194 6.43079C18.6474 6.39535 18.4683 6.42279 18.3148 6.50812L6.9402 12.8279L1.49278 10.4445C1.47618 10.4372 1.46705 10.4332 1.46837 10.4051C1.46969 10.3771 1.47916 10.3739 1.49635 10.3683L23.4782 3.12219C23.4888 3.11872 23.5008 3.11472 23.5185 3.13083C23.5362 3.14704 23.5333 3.15935 23.5307 3.17028Z" fill="white"/>
</g>
<defs>
<clipPath id="clip0_281_724">
<rect width="25" height="25" fill="white"/>
</clipPath>
</defs>
</svg>

<svg width="25" height="25" fill="none" xmlns="http://www.w3.org/2000/svg"><g clip-path="url(#clip0_281_724)"><path d="M24.51 2.048a1.511 1.511 0 00-1.492-.32L1.037 8.974c-.6.197-1.006.732-1.035 1.362a1.5 1.5 0 00.902 1.454l5.436 2.378 1.64 7.607c.069.316.23.598.569.684.344.088.587-.1.843-.292l4.034-3.02 4.716 3.859a1.5 1.5 0 001.44.261 1.5 1.5 0 00.985-1.084L24.96 3.507a1.511 1.511 0 00-.45-1.459zM9.744 15.531a.2.2 0 00-.007.022l-.91 3.177-1.015-4.706 6.979-3.878-4.88 5.102a.734.734 0 00-.167.283zm.289 4.323l.413-1.444.395-1.38 1.416 1.159-2.224 1.665zM23.531 3.17l-4.393 18.677c-.002.01-.005.022-.027.03-.021.007-.031-.002-.039-.008l-5.16-4.223-2.392-1.957 7.682-8.032a.734.734 0 00-.887-1.149L6.94 12.828l-5.447-2.383c-.017-.008-.026-.012-.025-.04.002-.028.011-.031.028-.037l21.982-7.246c.01-.003.023-.007.04.009.018.016.015.028.013.04z" fill="#fff"/></g><defs><clipPath id="clip0_281_724"><path fill="#fff" d="M0 0h25v25H0z"/></clipPath></defs></svg>
